X: 1646
T: Katia Waltz
C:Arthur Bowley, (1913-2006)
B: australian traditional tunes wiki
M:3/4
L:1/8
R: Waltz
Q: 1/4=100
K:G
V:1 
"G"D2 G2 B2 |e2 d3 B |"D7"d4 ^c2 |c6 |D2 F2 A2 |c2 f2 d2 |"C"e4 d2 |"G"B6 |
D2 G2 B2 |e2 d3 B |"D7"d4 ^c2 |c6 |d2 c2 D2 |B4 A2 |"G"(G6 |G4) gg |
g2 f2 e2 |d2 c2 B2 |"D7"d2 c2 A2 |F4 ff |f2 e2 d2 |c2 B2 A2 |"G"G2 B2 e2 |d4 gg |
g2 f2 e2 |d2 c2 B2 |"D7"d2 c2 A2 |F4 ff |d2 c2 D2 |B4 A2 |"G"(G6 |G6) |
% abcbook-tune_id 6342d53ab8fc51f49b0e7007


% abcbook-boost 0
% abcbook-tablature 
% abcbook-transpose 
% abcbook-lastupdated 1665324375864
% abcbook-soundfonts 
% abcbook-repeats 1
% NFF Book 2015

